X:0430
M:2/4
L:1/8
Q:1/4=104
P:ABA
K:D
P:A
dd (c/d/e/).c/|d/c/d/e/ d2 |
ff  e/f/g/e/  |f/e/f/g/ f2 |
af Tf``(e/f/) |g```e   Te2 |
af Tf```e/f/  |g```e   Te2 |
P:B
d>f aa|a3a|bagf|g2g2 |
e>f gg|g3b|agfe|f2f2|]

